symbols/web/compass_calibration/materialsymbolsoutlined/compass_calibration_grad200fill1_48px.svg

<svg xmlns="http://www.w3.org/2000/svg" height="48" width="48"><path d="M24 45.1q-4.25 0-7.275-3.025Q13.7 39.05 13.7 34.8q0-4.2 3.025-7.25T24 24.5q4.25 0 7.275 3.05Q34.3 30.6 34.3 34.8q0 4.25-3.025 7.275Q28.25 45.1 24 45.1ZM13.05 23.8 2.95 13.65q4.2-4 9.625-6.475Q18 4.7 24 4.7q6 0 11.425 2.475Q40.85 9.65 45.1 13.65L34.95 23.8q-2.25-2.15-5-3.425T24 19.1q-3.2 0-5.95 1.275t-5 3.425Z"/></svg>

<svg xmlns="http://www.w3.org/2000/svg" height="48" width="48"><path d="M24 45.1Q19.75 45.1 16.725 42.075Q13.7 39.05 13.7 34.8Q13.7 30.6 16.725 27.55Q19.75 24.5 24 24.5Q28.25 24.5 31.275 27.55Q34.3 30.6 34.3 34.8Q34.3 39.05 31.275 42.075Q28.25 45.1 24 45.1ZM13.05 23.8 2.95 13.65Q7.15 9.65 12.575 7.175Q18 4.7 24 4.7Q30 4.7 35.425 7.175Q40.85 9.65 45.1 13.65L34.95 23.8Q32.7 21.65 29.95 20.375Q27.2 19.1 24 19.1Q20.8 19.1 18.05 20.375Q15.3 21.65 13.05 23.8Z"/></svg>
